_includes/icons/ios-google-drive.svg

<svg fill="#666" height="50" viewBox="0 0 50 50" width="50" xmlns="http://www.w3.org/2000/svg"><path d="m16.40625 4c-.273437.058594-.511719.226563-.65625.46875l-15.59375 25c-.1875.289063-.2109375.65625-.0625.96875l7.8125 16c.167969.347656.519531.566406.90625.5625h31.5c.367188-.003906.703125-.207031.875-.53125l8.6875-16c.167969-.316406.15625-.695312-.03125-1l-15.59375-25c-.183594-.292969-.5-.46875-.84375-.46875h-16.8125c-.03125 0-.0625 0-.09375 0s-.0625 0-.09375 0zm.875 2h15.5625l14.6875 23.5625-18.125-5.5625zm-.34375.375 4.15625 17.03125-11.71875 21.53125-7.21875-14.875zm7.875 15.03125 4.875 7.59375h-9.375zm23 8.65625-8.09375 14.9375h-29.78125l15.0625-13.5z"/></svg>

<svg xmlns="http://www.w3.org/2000/svg" viewBox="0 0 50 50" width="50" height="50" fill="#666"><path d="M 16.40625 4 C 16.132813 4.058594 15.894531 4.226563 15.75 4.46875 L 0.15625 29.46875 C -0.03125 29.757813 -0.0546875 30.125 0.09375 30.4375 L 7.90625 46.4375 C 8.074219 46.785156 8.425781 47.003906 8.8125 47 L 40.3125 47 C 40.679688 46.996094 41.015625 46.792969 41.1875 46.46875 L 49.875 30.46875 C 50.042969 30.152344 50.03125 29.773438 49.84375 29.46875 L 34.25 4.46875 C 34.066406 4.175781 33.75 4 33.40625 4 L 16.59375 4 C 16.5625 4 16.53125 4 16.5 4 C 16.46875 4 16.4375 4 16.40625 4 Z M 17.28125 6 L 32.84375 6 L 47.53125 29.5625 L 29.40625 24 Z M 16.9375 6.375 L 21.09375 23.40625 L 9.375 44.9375 L 2.15625 30.0625 Z M 24.8125 21.40625 L 29.6875 29 L 20.3125 29 Z M 47.8125 30.0625 L 39.71875 45 L 9.9375 45 L 25 31.5 Z"/></svg>
